X: 21
T: Trois filles estoient
N: Derived from Jap3021-Trois_filles_estoient.krn
C: Jean Japart
%%abc-version 2.0
%%abcx-abcm2ps-target-version 5.9.1 (29 Sep 2008)
%%abc-creator hum2abc beta
%%abcx-conversion-date 2019/02/16 20:40:05
%%abc-edited-by Jesse Rodin
%%abc-edited-by Chris Gage 10-03-2013
%%abcx-initial-encoding-date 2013/10/24/
%%humdrum-veritas 1420967664
%%humdrum-veritas-data 720358184
%%linebreak <none>
%%barnumbers 0
L: 1/4
M: 2/1
Q: 1/2=120
V: 1 clef=treble-8
V: 2 clef=treble-8
V: 3 clef=treble-8
K: C
[V:1] z8 | 
[V:2] z8 | 
[V:3] d4d4 | 
[V:1] z8 | 
[V:2] z8 | 
[V:3] c4c4 | 
[V:1] z8 | 
[V:2] z8 | 
[V:3] d4d4 | 
[V:1] d4d4 | 
[V:2] z8 | 
[V:3] f4f4 | 
[V:1] c4c4 | 
[V:2] z8 | 
[V:3] e4e4 | 
[V:1] d4d4 | 
[V:2] z8 | 
[V:3] d6c2 | 
[V:1] f4f4 | 
[V:2] d4d4 | 
[V:3] _B4d4 | 
[V:1] e4e4 | 
[V:2] c4c4 | 
[V:3] A8 | 
[V:1] d6cB | 
[V:2] d4d4 | 
[V:3] z4D4- | 
[V:1] A8 | 
[V:2] f4f4 | 
[V:3] D2E2F2G2 | 
[V:1] z8 | 
[V:2] e4e4 | 
[V:3] A2B2c2Bc | 
[V:1] z8 | 
[V:2] d6cB | 
[V:3] dcBAG4 | 
[V:1] c4c4 | 
[V:2] A8 | 
[V:3] A4c4 | 
[V:1] A4A4 | 
[V:2] c4c4 | 
[V:3] c4A4 | 
[V:1] F4F4 | 
[V:2] A4A4 | 
[V:3] A4F4 | 
[V:1] c4d2f2- | 
[V:2] F4F4 | 
[V:3] F4D4 | 
[V:1] f2ede4 | 
[V:2] G8 | 
[V:3] C8 | 
[V:1] f4c4 | 
[V:2] F8 | 
[V:3] c6A2 | 
[V:1] d6cB | 
[V:2] z8 | 
[V:3] F2_B4AG | 
[V:1] A8 | 
[V:2] c8 | 
[V:3] F4e4 | 
[V:1] z8 | 
[V:2] d6cB | 
[V:3] f6ed | 
[V:1] F2F2F2F2 | 
[V:2] A8 | 
[V:3] c4f4- | 
[V:1] G4G4 | 
[V:2] z8 | 
[V:3] f2ededcB | 
[V:1] F2F2E2E2 | 
[V:2] z8 | 
[V:3] A2d4^c2 | 
[V:1] D2A3Bcd | 
[V:2] F2F2F2F2 | 
[V:3] d4A4 | 
[V:1] e2f4e2 | 
[V:2] G4G4 | 
[V:3] z4_B4 | 
[V:1] f2ed^c3B | 
[V:2] F2F2E2E2 | 
[V:3] A4G4 | 
[V:1] d8 | 
[V:2] D8 | 
[V:3] _B4A4 | 
[V:1] [M:3/1]z12 | 
[V:2] [M:3/1]D12 | 
[V:3] [M:3/1]d8d4 | 
[V:1] z12 | 
[V:2] E12 | 
[V:3] c8c4 | 
[V:1] z12 | 
[V:2] D12 | 
[V:3] d8d4 | 
[V:1] d8d4 | 
[V:2] D12 | 
[V:3] f8f4 | 
[V:1] c8c4 | 
[V:2] A12 | 
[V:3] e8e4 | 
[V:1] d8d4 | 
[V:2] D12 | 
[V:3] d8d4 | 
[V:1] f8f4 | 
[V:2] d8d4 | 
[V:3] _B6c2d4 | 
[V:1] e8e4 | 
[V:2] c8c4 | 
[V:3] A8A4 | 
[V:1] d6c2B4 | 
[V:2] d8d4 | 
[V:3] D8D4- | 
[V:1] A8z4 | 
[V:2] f8f4 | 
[V:3] D4D8 | 
[V:1] z12 | 
[V:2] e8e4 | 
[V:3] A6G2A4 | 
[V:1] z12 | 
[V:2] d6c2B4 | 
[V:3] _B6A2G4 | 
[V:1] c8c4 | 
[V:2] A12 | 
[V:3] F12- | 
[V:1] A8A4 | 
[V:2] c8c4 | 
[V:3] F12 | 
[V:1] F8c4 | 
[V:2] A8A4 | 
[V:3] z4z4F4 | 
[V:1] d4f8 | 
[V:2] F8F4 | 
[V:3] F4D8 | 
[V:1] e4g6f2 | 
[V:2] G8G4 | 
[V:3] C12 | 
[V:1] e2d2e6d2 | 
[V:2] G4G8 | 
[V:3] C12 | 
[V:1] f8c4 | 
[V:2] F12 | 
[V:3] c8A4 | 
[V:1] d6c2B4 | 
[V:2] z12 | 
[V:3] _B4G8 | 
[V:1] A8e4 | 
[V:2] c8c4 | 
[V:3] F6G2A4 | 
[V:1] f6e2d4 | 
[V:2] d6c2B4 | 
[V:3] D12 | 
[V:1] ^c12 | 
[V:2] A12 | 
[V:3] z12 | 
[V:1] [M:2/1]d4d4 | 
[V:2] [M:2/1]F4F4 | 
[V:3] [M:2/1]A4A4 | 
[V:1] d4d4 | 
[V:2] F4F4 | 
[V:3] A4A4 | 
[V:1] e8 | 
[V:2] G8 | 
[V:3] B8 | 
[V:1] e8 | 
[V:2] G8 | 
[V:3] B8 | 
[V:1] d4d4 | 
[V:2] F4F4 | 
[V:3] A4A4 | 
[V:1] ^c4^c4 | 
[V:2] E4E4 | 
[V:3] G4G4 | 
[V:1] d8 |]  
[V:2] D8 |]  
[V:3] A8 |]  



